X: 21496
T: Kick The World Before Me
R: slip jig
M: 9/8
K: Ddorian
|:e|f2 d ecA AcA|fdd edc d2 e|f2 d ecA A/B/cA|ff/g/a g2 e d2:|
|:e|f2 f faf ege|fcc faf g2 e|f2 f faf e/f/ge|ff/e/d e2 ^c d2:|

